icons/4_Outdated/AppFolio v1.svg

<svg width="1024" height="1024" viewBox="0 0 1024 1024" fill="none" xmlns="http://www.w3.org/2000/svg">
<g clip-path="url(#clip0_3_749)">
<path d="M512 1024C794.77 1024 1024 794.77 1024 512C1024 229.23 794.77 0 512 0C229.23 0 0 229.23 0 512C0 794.77 229.23 1024 512 1024Z" fill="#9ABEFF"/>
<path d="M628.17 483.88H629.78V549C629.78 643.52 542.67 668.21 500.78 668.21C452.62 668.21 396.29 642.28 396.29 593.45C396.29 537.88 452.71 525.15 520.92 514.7C540.3 511.38 572.12 506.15 593.92 501.88C607.034 499.895 619.098 493.554 628.17 483.88ZM512.19 256C653.52 256.05 768.05 370.67 768 512C767.95 653.33 653.67 767.74 512.47 768C371.09 768.26 256.26 653.86 256 512.48C255.74 371.1 370.14 256.26 511.53 256H512.19ZM671.87 439C671.87 325.87 576.59 312.57 535.46 312.57C387.18 312.57 373.46 408.57 371.03 433.4C371.674 438.983 374.417 444.112 378.703 447.746C382.989 451.381 388.498 453.248 394.11 452.97C399.258 453.561 404.43 452.096 408.503 448.893C412.575 445.691 415.22 441.011 415.86 435.87C424.6 394.36 447.3 354.56 529.09 354.56C567.37 354.56 600.14 361.68 618.67 384.56C629.858 399.661 635.313 418.248 634.06 437C634.343 443.867 633.111 450.712 630.451 457.05C627.792 463.387 623.769 469.062 618.67 473.67C605.18 484.88 586.37 484.78 491.95 495.9C361.34 511.19 351.84 574.65 351.84 607.7C351.84 673.91 434.67 711.33 493.57 712.85C520.15 714.65 546.812 710.866 571.84 701.74C593.107 694.043 612.415 681.753 628.391 665.744C644.366 649.735 656.617 630.402 664.27 609.12C676.52 576.21 671.68 490.63 671.87 439Z" fill="white"/>
</g>
<defs>
<clipPath id="clip0_3_749">
<rect width="1024" height="1024" fill="white"/>
</clipPath>
</defs>
</svg>

<svg xmlns="http://www.w3.org/2000/svg" viewBox="0 0 1024 1024">
   <circle cx="512" cy="512" r="512" style="fill:#00aed3"/>
   <path d="M628.17 483.88h1.61V549c0 94.52-87.11 119.21-129 119.21-48.16 0-104.49-25.93-104.49-74.76 0-55.57 56.42-68.3 124.63-78.75 19.38-3.32 51.2-8.55 73-12.82a59.08 59.08 0 0 0 34.25-18zM512.19 256c141.33.05 255.86 114.67 255.81 256S653.67 767.74 512.47 768c-141.38.26-256.21-114.14-256.47-255.52S370.14 256.26 511.53 256zm159.68 183c0-113.13-95.28-126.43-136.41-126.43-148.28 0-162 96-164.43 120.83a22.13 22.13 0 0 0 23.08 19.57 19.66 19.66 0 0 0 21.75-17.1c8.74-41.51 31.44-81.31 113.23-81.31 38.28 0 71.05 7.12 89.58 30A79.22 79.22 0 0 1 634.06 437a46.83 46.83 0 0 1-15.39 36.67c-13.49 11.21-32.3 11.11-126.72 22.23-130.61 15.29-140.11 78.75-140.11 111.8 0 66.21 82.83 103.63 141.73 105.15a190.84 190.84 0 0 0 78.27-11.11 153.88 153.88 0 0 0 92.43-92.62c12.25-32.91 7.41-118.49 7.6-170.12z" style="fill:#fff"/>
</svg>
